X:64
T:Gan Ainm
R:Barn Dance
S:Mairead Mooney, Donegal (fiddle)
D:Private tape
N:As played
Z:Bernie Stocks
M:4/4
K:D
FG || A2 (3.A.A.A f2{a}fe | de{d}cB A2{d}BA | GFGA {d}(3BAB AF |
GFGA {d}BAFA | A2 (3.A.A.A f2{a}fe | de{d}cB A2{d}BA | GFGA {d}BABc
|1 d2f2 d2FG :|2 d2f2 d2A2 || dcde {a}(3fef A2 | dcde {a}(3fef A2 |
eAef gece | dcde {a}(3fef A2 | dcde {a}(3fef A2 | dcde {a}(3fef A2 |
eAef gece |1 (3.d.d.d f2 d2 A2 :|2 (3.d.d.d d2FG ||
<end>
<start>
